X: 17483
T: Hill Road, The
R: reel
M: 4/4
K: Dmajor
D2FD ADFD|D2FA Bcde|f2ed ~B3c|dBAF EDFE|
D3B ADFD|D2FA Bcde|f2ed BAdB|1 AFEG FDDE:|2 AFEF D3B||
ADFD DEFA|deff efdB|ADFD ADFA|B2AF E[FC][EG]G|
AD~D2 DEFA|deff efdf|geed (3Bcd AG|1 FAde fedB:|2 FAde fddf||
a2fd adfd|d2fb agfd|=c2~c2 gcac|gc~c2 gabg|
a2fd adfd|d2fb agfa|geed ceAG|1 FAde fddf:|2 FAde fdAF||

